src/assets/icons/cars/diesel.svg

<svg width="48" height="48" viewBox="0 0 48 48" fill="none" xmlns="http://www.w3.org/2000/svg">
<g id="Icons / Vertical Cars / Car engine diesel">
<g id="Vector">
<path fill-rule="evenodd" clip-rule="evenodd" d="M24 18.6042C29.594 18.6042 34.461 17.6052 37 16.1312V19.8702C37 19.9872 36.93 20.1152 36.93 20.2502C36.93 20.9652 35.487 22.1232 32.313 22.9762C31.779 23.1202 31.465 23.6682 31.608 24.2022C31.728 24.6482 32.133 24.9432 32.574 24.9432C32.66 24.9432 32.741 24.9312 32.828 24.9082C34.61 24.4292 36 23.8372 37 23.1592V25.7072C37 25.8242 36.93 25.9522 36.93 26.0862C36.93 26.8002 35.489 27.9582 32.318 28.8112C31.785 28.9542 31.47 29.5032 31.614 30.0362C31.734 30.4832 32.139 30.7772 32.58 30.7772C32.666 30.7772 32.747 30.7662 32.834 30.7422C34.613 30.2642 36 29.6722 37 28.9952V33.7622C37 34.6742 32.586 36.8122 24 36.8122C15.414 36.8122 11 34.6742 11 33.7622V28.9952C12 29.6722 13.386 30.2642 15.166 30.7422C15.252 30.7662 15.336 30.7772 15.422 30.7772C15.864 30.7772 16.266 30.4832 16.386 30.0362C16.53 29.5032 16.212 28.9542 15.679 28.8112C12.508 27.9582 11.07 26.8002 11.07 26.0862C11.07 25.9522 11 25.8242 11 25.7072V23.1592C12 23.8372 13.389 24.4292 15.171 24.9082C15.258 24.9312 15.342 24.9432 15.428 24.9432C15.87 24.9432 16.272 24.6482 16.392 24.2022C16.535 23.6682 16.218 23.1202 15.685 22.9762C12.51 22.1232 11.07 20.9652 11.07 20.2502C11.07 20.1152 11 19.9872 11 19.8702V16.1312C13.539 17.6052 18.406 18.6042 24 18.6042ZM24 16.6042C16.268 16.6042 11.91 14.7012 11.188 13.8022C11.91 12.9032 16.268 11.0002 24 11.0002C31.732 11.0002 36.09 12.9032 36.812 13.8022C36.09 14.7012 31.732 16.6042 24 16.6042ZM24 9.00018C16.277 9.00018 9.932 10.9012 9.202 13.3332C9.084 13.4982 9 13.6882 9 13.9062V33.7622C9 37.2322 16.769 38.8122 24 38.8122C31.231 38.8122 39 37.2322 39 33.7622V13.9062C39 13.6882 38.916 13.4982 38.798 13.3332C38.068 10.9012 31.723 9.00018 24 9.00018Z" fill="#253238"/>
<path fill-rule="evenodd" clip-rule="evenodd" d="M24 30.4063C23.081 30.4063 22.333 29.6583 22.333 28.7393C22.333 28.2053 23.099 26.6973 24 25.2373C24.901 26.6973 25.667 28.2043 25.667 28.7393C25.667 29.6583 24.919 30.4063 24 30.4063ZM24 22.4323C23.682 22.4323 23.364 22.5673 23.177 22.8383C22.51 23.8033 20.333 27.0833 20.333 28.7393C20.333 30.7613 21.979 32.4063 24 32.4063C26.021 32.4063 27.667 30.7613 27.667 28.7393C27.667 27.0833 25.49 23.8033 24.823 22.8383C24.636 22.5673 24.318 22.4323 24 22.4323Z" fill="#253238"/>
<path fill-rule="evenodd" clip-rule="evenodd" d="M18.5 12.9062C17.119 12.9062 16 13.3542 16 13.9062C16 14.4582 17.119 14.9062 18.5 14.9062C19.881 14.9062 21 14.4582 21 13.9062C21 13.3542 19.881 12.9062 18.5 12.9062Z" fill="#253238"/>
</g>
</g>
</svg>

<svg width="48" height="48" viewBox="0 0 48 48" fill="none" xmlns="http://www.w3.org/2000/svg"><g fill-rule="evenodd" clip-rule="evenodd" fill="#253238"><path d="M24 18.604c5.594 0 10.461-.999 13-2.473v3.74c0 .116-.07.244-.07.38 0 .714-1.443 1.872-4.617 2.725a1 1 0 00.515 1.932C34.61 24.43 36 23.838 37 23.16v2.548c0 .117-.07.245-.07.38 0 .713-1.441 1.871-4.612 2.724a1.001 1.001 0 00.516 1.931c1.779-.478 3.166-1.07 4.166-1.747v4.767c0 .912-4.414 3.05-13 3.05s-13-2.138-13-3.05v-4.767c1 .677 2.386 1.27 4.166 1.747a.998.998 0 001.22-.706 1 1 0 00-.707-1.225c-3.171-.853-4.609-2.01-4.609-2.725 0-.134-.07-.262-.07-.379V23.16c1 .678 2.389 1.27 4.171 1.75a.994.994 0 001.221-.707 1.002 1.002 0 00-.707-1.226c-3.175-.853-4.615-2.01-4.615-2.726 0-.135-.07-.263-.07-.38v-3.739c2.539 1.474 7.406 2.473 13 2.473zm0-2c-7.732 0-12.09-1.903-12.812-2.802C11.91 12.903 16.268 11 24 11c7.732 0 12.09 1.903 12.812 2.802-.722.9-5.08 2.802-12.812 2.802zM24 9c-7.723 0-14.068 1.901-14.798 4.333a.979.979 0 00-.202.573v19.856c0 3.47 7.769 5.05 15 5.05s15-1.58 15-5.05V13.906a.979.979 0 00-.202-.573C38.068 10.901 31.723 9 24 9z"/><path d="M24 30.406a1.67 1.67 0 01-1.667-1.667c0-.534.766-2.042 1.667-3.502.901 1.46 1.667 2.967 1.667 3.502A1.67 1.67 0 0124 30.406zm0-7.974c-.318 0-.636.135-.823.406-.667.965-2.844 4.245-2.844 5.901A3.672 3.672 0 0024 32.406a3.672 3.672 0 003.667-3.667c0-1.656-2.177-4.936-2.844-5.9-.187-.272-.505-.407-.823-.407zM18.5 12.906c-1.381 0-2.5.448-2.5 1s1.119 1 2.5 1 2.5-.448 2.5-1-1.119-1-2.5-1z"/></g></svg>
